Sources/FrostedUI/Resources/Icons.xcassets/heading32.imageset/heading-32.svg

<svg width="32" height="32" viewBox="0 0 32 32" fill="none" xmlns="http://www.w3.org/2000/svg" data-fui-icon="true">
  <path
    d="M2 2.91971C2 2.41177 2.41177 2 2.91971 2H9.45985C9.96779 2 10.3796 2.41177 10.3796 2.91971C10.3796 3.42765 9.96779 3.83942 9.45985 3.83942H7.10948V15.0803L24.8905 15.0803V3.83942H22.5401C22.0322 3.83942 21.6204 3.42765 21.6204 2.91971C21.6204 2.41177 22.0322 2 22.5401 2H29.0803C29.5882 2 30 2.41177 30 2.91971C30 3.42765 29.5882 3.83942 29.0803 3.83942H26.7299V28.1606H29.0803C29.5882 28.1606 30 28.5723 30 29.0803C30 29.5882 29.5882 30 29.0803 30H22.5401C22.0322 30 21.6204 29.5882 21.6204 29.0803C21.6204 28.5723 22.0322 28.1606 22.5401 28.1606H24.8905V16.9197L7.10948 16.9197V28.1606H9.45985C9.96779 28.1606 10.3796 28.5723 10.3796 29.0803C10.3796 29.5882 9.96779 30 9.45985 30H2.91971C2.41177 30 2 29.5882 2 29.0803C2 28.5723 2.41177 28.1606 2.91971 28.1606H5.27006V3.83942H2.91971C2.41177 3.83942 2 3.42765 2 2.91971Z"
    fill="currentColor"
  />
</svg>

<svg xmlns="http://www.w3.org/2000/svg" width="32" height="32" fill="none" data-fui-icon="true" viewBox="0 0 32 32"><path fill="currentColor" d="M2 2.92A.92.92 0 0 1 2.92 2h6.54a.92.92 0 1 1 0 1.84H7.11v11.24h17.78V3.84h-2.35a.92.92 0 0 1 0-1.84h6.54a.92.92 0 0 1 0 1.84h-2.35v24.32h2.35a.92.92 0 1 1 0 1.84h-6.54a.92.92 0 0 1 0-1.84h2.35V16.92H7.11v11.24h2.35a.92.92 0 1 1 0 1.84H2.92a.92.92 0 0 1 0-1.84h2.35V3.84H2.92A.92.92 0 0 1 2 2.92"/></svg>
